X: 1
T: Old Faithful
C: Jerry Holland
S: Donough O'Donovan <odono:IINET.NET.AU> irtrad-l 2001-9-16
R: march
M: 4/4
L: 1/8
K: D
ag |\
"D"f2ed "A"c2Bc |\
"D"d2AG FADd |\
"G"B2AG "D/f"F2ED |\
"A7"G2E2 E2 (3a^g=g |
"D"f2ef "Em"gedc |\
"D/f"dA"G"BG "D"F2ED |\
"G"BcdB "A"AFGE |\
"D"F2D2 D2 :| fg |\
"D"abag "Bm"~f2ef |
"G"gage "A"~c2BA |\
"Bm"dcde fc"G"gf |\
"A"e2E2 E2fg |\
"D"abag "Bm"~f2ef |\
"G"gedc "D/f"d2 (3AB=c |
"G"BAGB "A"AFGE |\
"D"F2D2 D2 |] fg |\
"D"abag "Bm"~f2af |\
"Em"gbge "A"ceAc |\
"Bm"dcde "D/f"fdef |
"E"~^g3f/g/ "A"a2FE |\
"D"DFAd "Em"EGBe |\
"D/f"FAdf "G"GBdg |\
"D/f"afed "A"cbag |\
"Bm"(3fgf "G"d2"D"d2 |]

%%sep 1 1 500

